Newaita/actions/22/format-join-node.svg

<?xml version="1.0" encoding="UTF-8"?>
<svg xmlns="http://www.w3.org/2000/svg" xmlns:xlink="http://www.w3.org/1999/xlink" width="22pt" height="22pt" viewBox="0 0 22 22" version="1.1">
<g id="surface1">
<path style=" stroke:none;fill-rule:nonzero;fill:rgb(14.901961%,65.098041%,60.392159%);fill-opacity:1;" d="M 7.542969 8.726562 C 7.535156 8.550781 7.601562 8.382812 7.722656 8.253906 C 7.84375 8.128906 8.011719 8.058594 8.1875 8.058594 L 13.644531 8.058594 C 13.878906 8.058594 14.09375 8.183594 14.207031 8.382812 C 14.320312 8.585938 14.316406 8.835938 14.199219 9.03125 L 11.46875 13.582031 C 11.351562 13.773438 11.144531 13.894531 10.917969 13.894531 C 10.691406 13.894531 10.480469 13.773438 10.363281 13.582031 L 7.636719 9.03125 C 7.578125 8.941406 7.546875 8.835938 7.542969 8.726562 Z M 9.328125 9.347656 L 10.917969 11.996094 L 12.507812 9.347656 Z M 9.328125 9.347656 "/>
<path style=" stroke:none;fill-rule:nonzero;fill:rgb(25.882354%,25.882354%,25.882354%);fill-opacity:1;" d="M 2.273438 1.082031 C 1.519531 1.082031 0.910156 1.691406 0.910156 2.445312 L 0.910156 6.085938 C 0.910156 6.839844 1.519531 7.449219 2.273438 7.449219 L 5.914062 7.449219 C 6.667969 7.449219 7.277344 6.839844 7.277344 6.085938 L 7.277344 2.445312 C 7.277344 1.691406 6.667969 1.082031 5.914062 1.082031 Z M 2.730469 2.445312 L 5.457031 2.445312 C 5.710938 2.445312 5.914062 2.648438 5.914062 2.902344 L 5.914062 5.628906 C 5.914062 5.882812 5.710938 6.085938 5.457031 6.085938 L 2.730469 6.085938 C 2.476562 6.085938 2.273438 5.882812 2.273438 5.628906 L 2.273438 2.902344 C 2.273438 2.648438 2.476562 2.445312 2.730469 2.445312 Z M 2.730469 2.445312 "/>
<path style=" stroke:none;fill-rule:nonzero;fill:rgb(25.882354%,25.882354%,25.882354%);fill-opacity:1;" d="M 15.917969 1.082031 C 15.160156 1.082031 14.554688 1.691406 14.554688 2.445312 L 14.554688 6.085938 C 14.554688 6.839844 15.160156 7.449219 15.917969 7.449219 L 19.554688 7.449219 C 20.3125 7.449219 20.921875 6.839844 20.921875 6.085938 L 20.921875 2.445312 C 20.921875 1.691406 20.3125 1.082031 19.554688 1.082031 Z M 16.371094 2.445312 L 19.101562 2.445312 C 19.351562 2.445312 19.554688 2.648438 19.554688 2.902344 L 19.554688 5.628906 C 19.554688 5.882812 19.351562 6.085938 19.101562 6.085938 L 16.371094 6.085938 C 16.121094 6.085938 15.917969 5.882812 15.917969 5.628906 L 15.917969 2.902344 C 15.917969 2.648438 16.121094 2.445312 16.371094 2.445312 Z M 16.371094 2.445312 "/>
<path style=" stroke:none;fill-rule:nonzero;fill:rgb(25.882354%,25.882354%,25.882354%);fill-opacity:1;" d="M 9.097656 14.726562 C 8.339844 14.726562 7.730469 15.332031 7.730469 16.089844 L 7.730469 19.726562 C 7.730469 20.484375 8.339844 21.09375 9.097656 21.09375 L 12.734375 21.09375 C 13.488281 21.09375 14.097656 20.484375 14.097656 19.726562 L 14.097656 16.089844 C 14.097656 15.332031 13.488281 14.726562 12.734375 14.726562 Z M 9.550781 16.089844 L 12.28125 16.089844 C 12.53125 16.089844 12.734375 16.292969 12.734375 16.542969 L 12.734375 19.273438 C 12.734375 19.523438 12.53125 19.726562 12.28125 19.726562 L 9.550781 19.726562 C 9.296875 19.726562 9.097656 19.523438 9.097656 19.273438 L 9.097656 16.542969 C 9.097656 16.292969 9.296875 16.089844 9.550781 16.089844 Z M 9.550781 16.089844 "/>
<path style=" stroke:none;fill-rule:nonzero;fill:rgb(25.882354%,25.882354%,25.882354%);fill-opacity:1;" d="M 7.277344 3.582031 L 14.554688 3.582031 L 14.554688 4.945312 L 7.277344 4.945312 Z M 7.277344 3.582031 "/>
<path style=" stroke:none;fill-rule:nonzero;fill:rgb(25.882354%,25.882354%,25.882354%);fill-opacity:1;" d="M 14.097656 17.226562 L 20.949219 17.226562 L 20.949219 18.589844 L 14.097656 18.589844 Z M 14.097656 17.226562 "/>
<path style=" stroke:none;fill-rule:nonzero;fill:rgb(25.882354%,25.882354%,25.882354%);fill-opacity:1;" d="M 0.882812 17.226562 L 7.730469 17.226562 L 7.730469 18.589844 L 0.882812 18.589844 Z M 0.882812 17.226562 "/>
</g>
</svg>

<svg xmlns="http://www.w3.org/2000/svg" width="22pt" height="22pt" viewBox="0 0 22 22"><path d="M7.543 8.727a.647.647 0 0 1 .18-.473.647.647 0 0 1 .465-.195h5.457c.234 0 .449.125.562.324a.651.651 0 0 1-.008.648l-2.73 4.551a.648.648 0 0 1-.551.313.654.654 0 0 1-.555-.313l-2.726-4.55a.595.595 0 0 1-.094-.305zm1.785.62l1.59 2.65 1.59-2.65zm0 0" fill="#26a69a"/><path d="M2.273 1.082c-.753 0-1.363.61-1.363 1.363v3.64c0 .755.61 1.364 1.363 1.364h3.641c.754 0 1.363-.61 1.363-1.363v-3.64c0-.755-.609-1.364-1.363-1.364zm.457 1.363h2.727c.254 0 .457.203.457.457V5.63a.455.455 0 0 1-.457.457H2.73a.455.455 0 0 1-.457-.457V2.902c0-.254.204-.457.457-.457zm0 0M15.918 1.082a1.36 1.36 0 0 0-1.363 1.363v3.64a1.36 1.36 0 0 0 1.363 1.364h3.637c.758 0 1.367-.61 1.367-1.363v-3.64c0-.755-.61-1.364-1.367-1.364zm.453 1.363h2.73c.25 0 .454.203.454.457V5.63a.454.454 0 0 1-.453.457h-2.73a.454.454 0 0 1-.454-.457V2.902c0-.254.203-.457.453-.457zm0 0M9.098 14.727A1.36 1.36 0 0 0 7.73 16.09v3.637c0 .757.61 1.367 1.368 1.367h3.636c.754 0 1.364-.61 1.364-1.367V16.09a1.36 1.36 0 0 0-1.364-1.363zm.453 1.363h2.73c.25 0 .453.203.453.453v2.73c0 .25-.203.454-.453.454h-2.73a.451.451 0 0 1-.453-.454v-2.73c0-.25.199-.453.453-.453zm0 0" fill="#424242"/><path d="M7.277 3.582h7.278v1.363H7.277zm0 0M14.098 17.227h6.851v1.363h-6.851zm0 0M.883 17.227H7.73v1.363H.883zm0 0" fill="#424242"/></svg>
